resources/haticons/SVG/enter.svg

<!-- Generated by IcoMoon.io -->
<svg version="1.1" xmlns="http://www.w3.org/2000/svg" width="24" height="24" viewBox="0 0 24 24">
<title>enter</title>
<path d="M9 12h-7.5v-3h7.5v-3l4.5 4.5-4.5 4.5zM24 0v19.5l-9 4.5v-4.5h-9v-6h1.5v4.5h7.5v-13.5l6-3h-13.5v6h-1.5v-7.5z"></path>
</svg>

<svg xmlns="http://www.w3.org/2000/svg" width="24" height="24"><path d="M9 12H1.5V9H9V6l4.5 4.5L9 15zM24 0v19.5L15 24v-4.5H6v-6h1.5V18H15V4.5l6-3H7.5v6H6V0z"/></svg>
